www/assets/icons/bedtime_off.svg

<svg width="24" height="24" viewBox="0 0 24 24" xmlns="http://www.w3.org/2000/svg" fill='currentColor'><path d="M21.9 20.8776L3.51998 2.49763L2.09998 3.90763L4.36998 6.17763C3.31998 7.76763 2.70998 9.65763 2.70998 11.6876C2.70998 17.2076 7.18998 21.6876 12.71 21.6876C14.75 21.6876 16.64 21.0676 18.22 20.0276L20.49 22.2976L21.9 20.8776Z"/><path d="M13.05 1.70763C10.87 1.63763 8.85998 2.25763 7.19998 3.34763L11.79 7.93763C11.52 5.88763 11.89 3.71763 13.05 1.70763Z"/></svg>

<svg xmlns="http://www.w3.org/2000/svg" width="24" height="24" viewBox="0 0 24 24" fill='currentColor'><path d="M21.9 20.878 3.52 2.498 2.1 3.908l2.27 2.27a9.96 9.96 0 0 0-1.66 5.51c0 5.52 4.48 10 10 10 2.04 0 3.93-.62 5.51-1.66l2.27 2.27zm-8.85-19.17c-2.18-.07-4.19.55-5.85 1.64l4.59 4.59c-.27-2.05.1-4.22 1.26-6.23"/></svg>
